assets/img/ticon1.svg

<svg width="80" height="80" viewBox="0 0 80 80" fill="none" xmlns="http://www.w3.org/2000/svg">
<path fill-rule="evenodd" clip-rule="evenodd" d="M1.66677 70.0001H78.3334C79.254 70.0001 80.0001 70.7463 80 71.6669C79.9945 76.2669 76.2669 79.9946 71.6667 80.0001H8.33325C3.73324 79.9946 0.00552728 76.2669 0 71.6669C0 70.7463 0.746184 70.0001 1.66677 70.0001ZM8.33325 76.6669H71.6669C73.7851 76.6641 75.673 75.3297 76.3817 73.3335H3.61833C4.32713 75.3297 6.21499 76.6641 8.33325 76.6669Z" fill="#2C4B9B"/>
<path d="M10 20C7.23855 20 5 22.2386 5 25V71.6669H8.33324V25C8.33324 24.0796 9.07957 23.3333 10 23.3333H17.4153V20H10Z" fill="#2C4B9B"/>
<path d="M70.0002 20H61.672V23.3333H70.0002C70.9206 23.3333 71.6668 24.0796 71.6668 25V71.6669H75.0002V25C75.0002 22.2386 72.7615 20 70.0002 20Z" fill="#2C4B9B"/>
<path d="M33.3339 71.667H46.6671V75.0003H33.3339V71.667Z" fill="#2C4B9B"/>
<path d="M58.3328 0H31.6661C31.2241 0.000145455 30.8004 0.175711 30.4878 0.488293L17.1546 13.8216C16.8421 14.1341 16.6663 14.558 16.6663 14.9999V55C16.6663 57.7614 18.9048 60 21.6663 60H34.9994V56.6667H21.6661C20.7457 56.6667 19.9994 55.9204 19.9994 55V15.6901L32.3562 3.33324H58.3329C59.2532 3.33324 59.9994 4.07957 59.9994 5.00001V55.0001C59.9994 55.9205 59.2532 56.6669 58.3328 56.6669H44.9994V60.0001H58.3328C61.0941 60.0001 63.3328 57.7616 63.3328 55.0001V5.00001C63.3328 2.23855 61.0941 0 58.3328 0Z" fill="#2C4B9B"/>
<path d="M30.0005 1.6669V11.6669C30.0005 12.5874 29.2541 13.3337 28.3337 13.3337H19.4191V16.6669H28.3337C31.0952 16.6669 33.3337 14.4284 33.3337 11.6669V1.6669H30.0005Z" fill="#2C4B9B"/>
<path d="M41.1788 32.155C40.8664 31.8425 40.4428 31.6671 40.0009 31.667C39.0805 31.6668 38.334 32.4127 38.3339 33.3331V66.6666H41.6671V37.3567L48.8222 44.5116L51.1788 42.155L41.1788 32.155Z" fill="#2C4B9B"/>
<path d="M28.821 42.1556L38.8206 32.156L41.1776 34.513L31.178 44.5125L28.821 42.1556Z" fill="#2C4B9B"/>
</svg>

<svg width="80" height="80" fill="none" xmlns="http://www.w3.org/2000/svg"><path fill-rule="evenodd" clip-rule="evenodd" d="M1.667 70h76.666c.921 0 1.667.746 1.667 1.667A8.343 8.343 0 0171.667 80H8.333A8.343 8.343 0 010 71.667C0 70.747.746 70 1.667 70zm6.666 6.667h63.334a5.01 5.01 0 004.715-3.334H3.618a5.01 5.01 0 004.715 3.334z" fill="#2C4B9B"/><path d="M10 20a5 5 0 00-5 5v46.667h3.333V25c0-.92.747-1.667 1.667-1.667h7.415V20H10zm60 0h-8.328v3.333H70c.92 0 1.667.747 1.667 1.667v46.667H75V25a5 5 0 00-5-5zM33.334 71.667h13.333V75H33.334v-3.333z" fill="#2C4B9B"/><path d="M58.333 0H31.666c-.442 0-.866.176-1.178.488L17.155 13.822A1.667 1.667 0 0016.666 15v40a5 5 0 005 5H35v-3.333H21.666C20.746 56.667 20 55.92 20 55V15.69L32.356 3.333h25.977c.92 0 1.666.747 1.666 1.667v50c0 .92-.746 1.667-1.666 1.667H44.999V60h13.334a5 5 0 005-5V5a5 5 0 00-5-5z" fill="#2C4B9B"/><path d="M30 1.667v10c0 .92-.746 1.667-1.666 1.667h-8.915v3.333h8.915a5 5 0 005-5v-10H30zm11.179 30.488a1.666 1.666 0 00-2.845 1.178v33.334h3.333v-29.31l7.155 7.155 2.357-2.357-10-10z" fill="#2C4B9B"/><path d="M28.821 42.156l10-10 2.357 2.357-10 10-2.357-2.357z" fill="#2C4B9B"/></svg>
